X:1
T:Title
%%score ( 1 2 ) { 3 | 4 }
L:1/8
Q:1/4=103
M:4/4
K:Eb
V:1 treble nm="Grand Piano, Soprano"
V:2 treble 
V:3 bass nm="Choir Pad, Ministry (Gower), 84.84.88"
V:4 bass 
V:1
 z4 B2 z2 | E2 [EF]2 [DG]2 [CE]2 | B2 E4 F2- | F2 z2 z4 | .G2 z2 z4 | G2 [GB]2 [GB]2 G2 | %6
 .=A2 z2 z4 | z8 | .c2 z2 z4 | .c2 z2 z4 | .c2 z2 .c2 z2 | .G2 z2 z4 | z8 | z8 |] %14
V:2
 EF [EG]2 EF [EG]2 | x8 | ED C2 C2 C2 | =B,2 [_B,G]6 | D-[D=A] [DB]2 [Dd]2 [DB]2 | x8 | %6
 _D-[DG] [=DF]4 [Ec]2- | [Ec]2 [DB]6 | D-[DB] E2 [DF]2 [EG]2 | D-[DB] E2 [DF]2 [EG]2 | %10
 =E-[EB] [FA]2 E-[EB] [FA]2 | E-[EF] [EG]4 [DF]2- | [DF]2 E6- | E2 z2 z4 |] %14
V:3
 G,A, B,2 CD E2 | B,2 C2 B,A, G,2 | E,2 E,4 E,2- | E,2 E,6 | B,C B,2 =A,2 B,2 | D2 E2 DC B,2 | %6
 B,2 B,2 =A,2 G,2 | =A,2 B,6 | B,2 B,2 B,2 B,2 | B,2 B,2 B,2 B,2 | C2 C2 C2 C2 | %11
 C2[K:bass] B,4 A,2- | A,2 G,6- | G,2 z2 z4 |] %14
V:4
 E,2 E,2 E,2 E,2 | G,,2 A,,2 B,,2 C,2 | G,,2 A,,4 A,,2- | A,,2 z2 z4 | D,2 G,2 G,_G, =G,2 | %5
 B,,2 C,2 D,2 G,2 | =E,2 F,4 F,2- | F,2 B,,6 | A,2 G,2 F,2 E,2 | A,2 G,2 F,2 E,2 | %10
 C,2 F,2 G,2 A,2 | =A,2 z2 z2 B,,2- | B,,2 E,6- | E,2 z2 z4 |] %14

